X: 131717
T: Memories of Kesh
T: Cuimhn\'i ar an gCeis
S: B.Breathnach:"Ceol Rince na hEireann" IV/104  
Z: B.Black
L: 1/8
M: 4/4
R: reel
K: D
dD (3DDD (3FED FA|B (3BBB c cc|dD (3DDD (3FED FD|\
EDEF DAFA|
dD (3DDD (3FED FA|B (3BBB c cc|dD (3DDD (3FED FD|
EDEF D2 Bc ||
defg afbf|gfeg fdBc|defg afbf|gece d2 (3ABc|
defg afbf|gfeg fdBc|defg agab|afeg fedc ||
